assets/img/icons_20_ic_audio_black.svg

<?xml version="1.0" encoding="UTF-8"?>
<svg width="20px" height="20px" viewBox="0 0 20 20" version="1.1" xmlns="http://www.w3.org/2000/svg" xmlns:xlink="http://www.w3.org/1999/xlink">
    <title>4BB26B26-5FB3-433A-8912-88642C1B3B84</title>
    <g id="학습창" stroke="none" stroke-width="1" fill="none" fill-rule="evenodd">
        <g id="Cube_Case" transform="translate(-80.000000, -110.000000)">
            <g id="Icons-/-20-/-ic_audio_black" transform="translate(80.000000, 110.000000)">
                <rect id="area" x="0" y="0" width="20" height="20"></rect>
                <path d="M10,1 C14.6944199,1 18.5,4.80558014 18.5,9.5 L18.5,14.5 C18.5,14.7761421 18.2761421,15 18,15 C17.7238579,15 17.5,14.7761421 17.5,14.5 L17.5,9.5 C17.5,5.35786438 14.1421356,2 10,2 C5.85786438,2 2.5,5.35786438 2.5,9.5 L2.5,14.5 C2.5,14.7761421 2.27614236,15 2,15 C1.72385761,15 1.5,14.7761421 1.5,14.5 L1.5,9.5 C1.5,4.80557919 5.30557966,1 10,1 Z M3,11.5 L3,16.5 C3,17.6045685 3.89543056,18.5 5,18.5 L6,18.5 C7.10456944,18.5 8,17.6045685 8,16.5 L8,11.5 C8,10.3954306 7.10456944,9.5 6,9.5 L5,9.5 C3.89543056,9.5 3,10.3954306 3,11.5 Z M5,10.5 C4.44771528,10.5 4,10.9477158 4,11.5 L4,16.5 C4,17.0522842 4.44771528,17.5 5,17.5 L6,17.5 C6.55228472,17.5 7,17.0522842 7,16.5 L7,11.5 C7,10.9477148 6.55228472,10.5 6,10.5 L5,10.5 Z M14,9.5 L15,9.5 C16.1045694,9.5 17,10.3954306 17,11.5 L17,16.5 C17,17.6045685 16.1045694,18.5 15,18.5 L14,18.5 C12.8954306,18.5 12,17.6045685 12,16.5 L12,11.5 C12,10.3954306 12.8954306,9.5 14,9.5 Z M15,10.5 C15.5522842,10.5 16,10.9477148 16,11.5 L16,16.5 C16,17.0522842 15.5522842,17.5 15,17.5 L14,17.5 C13.4477158,17.5 13,17.0522842 13,16.5 L13,11.5 C13,10.9477158 13.4477148,10.5 14,10.5 L15,10.5 Z" id="Union" fill="#000000"></path>
            </g>
        </g>
    </g>
</svg>

<svg width="20" height="20" viewBox="0 0 20 20" xmlns="http://www.w3.org/2000/svg">
    <g fill="none" fill-rule="evenodd">
        <path d="M0 0h20v20H0z"/>
        <path d="M10 1a8.5 8.5 0 0 1 8.5 8.5v5a.5.5 0 0 1-1 0v-5a7.5 7.5 0 0 0-15 0v5a.5.5 0 0 1-1 0v-5A8.5 8.5 0 0 1 10 1zM3 11.5v5a2 2 0 0 0 2 2h1a2 2 0 0 0 2-2v-5a2 2 0 0 0-2-2H5a2 2 0 0 0-2 2zm2-1a1 1 0 0 0-1 1v5a1 1 0 0 0 1 1h1a1 1 0 0 0 1-1v-5a1 1 0 0 0-1-1H5zm9-1h1a2 2 0 0 1 2 2v5a2 2 0 0 1-2 2h-1a2 2 0 0 1-2-2v-5a2 2 0 0 1 2-2zm1 1a1 1 0 0 1 1 1v5a1 1 0 0 1-1 1h-1a1 1 0 0 1-1-1v-5a1 1 0 0 1 1-1h1z" fill="#000"/>
    </g>
</svg>
